X:1
T:Thy Holy Spirit, Lord, Alone
T:Thy Holy Spirit, Lord, Alone
T:William James Kirkpatrick
T:Frances Jane (Fanny) Crosby, 1885
T:Public Domain Courtesy of the Cyber Hymnal™
C:William James Kirkpatrick
Z:Public Domain
Z:Courtesy of the Cyber Hymnal™
%%score 1 2
L:1/8
Q:1/4=112
M:6/8
K:F
V:1 treble 
V:2 bass 
V:1
 [CF] | [FA]2 [FA] [FA]2 [CG] | [CF]2 [CF] [CF]2 [FA] | [EG]2 [EG] [Ec]2 [EB] | [FA]3- [FA]2 [CF] | %5
w: 1.~Thy|Ho- ly Spir- it,|Lord, a- lone, Can|turn our hearts from|sin; * His|
w: 2.~Thy|Ho- ly Spir- it,|Lord, a- lone Can|deep- er love in-|spire; * His|
w: 3.~Thy|Ho- ly Spir- it,|Lord, can bring The|gifts we seek in|prayer; * His|
w: 4.~Thy|Ho- ly Spir- it,|Lord, can give The|grace we need this|hour; * And|
 [FA]2 [FA] [FA]2 [CG] | [CF]2 [CF] [CF]2 [FA] | [EG]2 [EG] [FA]2 [CG] | [CF]3- [CF]2 |] %9
w: power a- lone can|sanc- ti- fy And|keep us pure with-|in. *|
w: power a- lone with-|in our souls Can|light the sac- red|fire. *|
w: voice can words of|com- fort speak, And|still each wave of|care. *|
w: while we wait, O|Spir- it, come In|sanc- ti- fy- ing|power. *|
V:2
 [F,A,] | [F,C]2 [F,C] [F,C]2 [F,B,] | [F,A,]2 [F,A,] [F,A,]2 [F,C] | [C,C]2 [C,C] [C,G,]2 [C,C] | %4
 [F,C]3- [F,C]2 [F,A,] | [F,C]2 [F,C] [F,C]2 [F,B,] | [F,A,]2 [F,A,] [F,A,]2 [F,C] | %7
 [C,B,]2 [C,B,] [C,C]2 [C,B,] | [F,A,]3- [F,A,]2 |] %9

